X: 17293
T: Herr Roloff's Farewell
R: reel
M: 4/4
K: Fmajor
C|A2 B>G c2 A>F|f2 e>d c2 F2|E2 F2 D2 EF|B2 A2 G3C|
A2 B>G c2 A>F|f2 e>d c2 F2|E2 F>D C2 FB|A2 G2 F3A|
A2 d>e f2 ed|e2 A2 d3G|G2 Bd e2 dc|d2 G2 c3C|
A2 B>G c2 A>F|f2 B>d c2 AF|D2 F2 C2 FB|A2 G2 F3||

